X: 25212
T: Malfunction Junction
R: reel
M: 4/4
K: Adorian
|:eA A2 GABG|A2 (3Bcd eA A2|G3B dGBd|e2 de ed (3Bcd|
eAAB GAAG|A2 (3Bcd eA A2|G3B dGBd|e2 dB A2 (3Bcd:|
|:ea a2 gafg|ed (3Bcd eA A2|GAAG Bdde|e2de ed (3Bcd|
ea a2 gafg|ed (3Bcd eA A2|G3B dGBd|e2 dB A2 (3Bcd:|

